X: 372
T: Ireland For Ever!
M:6/8
L:1/8
B:O'Neill's 372
N:"With spirit."
N:"collected by F. O'Neill."
N:H is a fermata.
Z:Transcribed by Chris Falt, cfalt@trytel.com
K:G
D|G>AB G>AB|c>de dB^G|A>Bc A>Bc|(E/2A/2)zG (G/2F/2)zA|
AGF B2B|(B<e)d d>^cA|A2 (f/2d/2) (d/2B/2) GA|A>B^c d2D||
.G.G.G G2 D/2D/2|DE=F F/2E/2zE|.G.G.G AcB|ABG GF D/2D/2|
GzG BzB/2B/2|ddg Hfdc|Bcd He2 (c/2B/2)|(A/2d/2)z c2 (B<G)||


